X:58
T:Le Tic-Toc-Choc
C:Couperin, F.
M:2/4
L:1/16
Q:1/4=116
K:Bb
|:F4 GABC|D4 EFGA|BcBA GFED|C8|
F4 GABC|D4 BCDE|FGFE DCBA|G8:|

